X:44
M:3/4
L:1/4
K:F
D D A | F2 D | F2 G | A3 | A =B c | A F G | E3 | D3 | D D A | F2 D | F2 G | A3 | A =B c | A F G | E3 | D3 | d c =B | c2 A | A2 G | F3 | A d f | e2 d | c2 =B | A3 | !sintro!A A G | F G F | E3 | D3 !eintro!|]
